svg/furkot/icomoon/pushpin.svg

<svg viewBox="0 0 512 512" xmlns="http://www.w3.org/2000/svg"><path d="m272 0-48 48 48 48-112 128h-112l88 88-136 180.304v19.696h19.696l180.304-136 88 88v-112l128-112 48 48 48-48zm-48 272-32-32 112-112 32 32z"/></svg>

<svg xmlns="http://www.w3.org/2000/svg" viewBox="0 0 512 512"><path d="M272 0L224 48 272 96 160 224H48L136 312 0 492.304V512H19.696L200 376 288 464V352L416 240 464 288 512 240 272 0ZM224 272L192 240 304 128 336 160 224 272Z"/></svg>
